Newaita-dark/.DP/22/cryptfolder-closed-light.svg

<svg xmlns="http://www.w3.org/2000/svg" xmlns:xlink="http://www.w3.org/1999/xlink" width="22px" height="22px" viewBox="0 0 22 22" version="1.1">
<g id="surface1">
<path style=" stroke:none;fill-rule:nonzero;fill:rgb(93.333334%,93.333334%,93.333334%);fill-opacity:1;" d="M 10.914062 2.898438 C 7.890625 2.898438 5.457031 4.929688 5.457031 7.449219 L 5.457031 11.085938 L 4.546875 11.085938 C 4.042969 11.085938 3.636719 11.492188 3.636719 11.996094 L 3.636719 18.363281 C 3.636719 18.867188 4.042969 19.273438 4.546875 19.273438 L 17.28125 19.273438 C 17.785156 19.273438 18.191406 18.867188 18.191406 18.363281 L 18.191406 11.996094 C 18.191406 11.492188 17.785156 11.085938 17.28125 11.085938 L 16.371094 11.085938 L 16.371094 7.449219 C 16.371094 4.929688 13.9375 2.898438 10.914062 2.898438 Z M 10.914062 4.71875 C 12.929688 4.71875 14.554688 5.9375 14.554688 7.449219 L 14.554688 11.085938 L 7.277344 11.085938 L 7.277344 7.449219 C 7.277344 5.9375 8.898438 4.71875 10.914062 4.71875 Z M 10.914062 4.71875 "/>
</g>
</svg>

<svg xmlns="http://www.w3.org/2000/svg" width="22pt" height="22pt" viewBox="0 0 22 22"><path d="M10.914 2.902c-3.023 0-5.457 2.028-5.457 4.547v3.637h-.91a.909.909 0 0 0-.91.91v6.367c0 .504.406.91.91.91H17.28c.504 0 .91-.406.91-.91v-6.367a.909.909 0 0 0-.91-.91h-.91V7.449c0-2.52-2.433-4.547-5.457-4.547zm0 1.817c2.016 0 3.64 1.218 3.64 2.73v3.637H7.278V7.449c0-1.511 1.621-2.73 3.637-2.73zm0 0" fill="#bdbdbd"/></svg>
